cfmoto/public/img/icons/phone-footer.svg

<svg width="23" height="23" viewBox="0 0 23 23" fill="none" xmlns="http://www.w3.org/2000/svg">
<path d="M16.5304 23C15.788 23 15.0519 22.8687 14.332 22.6072C11.1607 21.4552 8.21713 19.5789 5.8193 17.1811C3.42147 14.7833 1.54516 11.8397 0.393188 8.6684C0.0230024 7.64925 -0.0862431 6.59723 0.0685962 5.54143C0.213643 4.55247 0.596721 3.59239 1.17646 2.76496C1.75876 1.9339 2.53507 1.24267 3.42143 0.766021C4.36663 0.257751 5.39831 0 6.48789 0C6.82677 0 7.11965 0.236774 7.19067 0.568104L8.31879 5.83269C8.36986 6.07108 8.2966 6.31913 8.12424 6.49153L6.19659 8.41914C8.01504 12.0346 10.9657 14.9853 14.5812 16.8037L16.5088 14.8761C16.6812 14.7037 16.9293 14.6305 17.1676 14.6815L22.4322 15.8097C22.7636 15.8807 23.0003 16.1735 23.0003 16.5124C23.0003 17.602 22.7426 18.6337 22.2343 19.5789C21.7576 20.4653 21.0664 21.2416 20.2353 21.8239C19.4079 22.4036 18.4479 22.7867 17.4588 22.9318C17.1489 22.9773 16.8391 23 16.5304 23ZM5.91364 1.46889C4.47642 1.62754 3.20078 2.38085 2.35368 3.58987C1.4011 4.94938 1.17897 6.62153 1.74425 8.17765C3.95899 14.2745 8.72594 19.0414 14.8228 21.2562C16.3788 21.8214 18.051 21.5993 19.4105 20.6467C20.6196 19.7996 21.3729 18.524 21.5315 17.0868L17.2488 16.1691L15.2357 18.1822C15.0214 18.3964 14.696 18.4533 14.4218 18.3245C10.1459 16.3157 6.68473 12.8545 4.67591 8.57856C4.54712 8.30441 4.60399 7.97892 4.81822 7.76474L6.83135 5.75161L5.91364 1.46889Z" fill="white"/>
</svg>

<svg width="23" height="23" fill="none" xmlns="http://www.w3.org/2000/svg"><path d="M16.53 23a6.409 6.409 0 01-2.198-.393 23.442 23.442 0 01-8.513-5.426A23.441 23.441 0 01.393 8.668 6.362 6.362 0 01.07 5.541 6.512 6.512 0 013.42.766 6.404 6.404 0 016.488 0a.72.72 0 01.703.568l1.128 5.265a.719.719 0 01-.195.659L6.197 8.419a18.918 18.918 0 008.384 8.385l1.928-1.928a.719.719 0 01.659-.194l5.264 1.128a.719.719 0 01.568.702c0 1.09-.257 2.122-.766 3.067a6.513 6.513 0 01-4.776 3.353 6.45 6.45 0 01-.928.068zM5.914 1.469a4.978 4.978 0 00-3.56 2.12 4.952 4.952 0 00-.61 4.589 21.8 21.8 0 0013.079 13.078 4.952 4.952 0 004.587-.61 4.978 4.978 0 002.122-3.56l-4.283-.917-2.013 2.013a.719.719 0 01-.814.143 20.351 20.351 0 01-9.746-9.746.719.719 0 01.142-.814l2.013-2.013-.917-4.283z" fill="#fff"/></svg>
